X:177
T:Natalie's Visit
M:4/4
L:1/8
R:reel
O:20th Century Cape Breton
C:Jerry Holland
H:Copyrights - Publisher:Fiddlesticks Music (SOCAN).
N:This abc transcription is for personal use only provided this notice
N:remains attached.  Used by permission of the composer and publisher.
Z:Paul Stewart Cranford 
K:Ador
|:eAA2 BAGA|eAA2 egfd|eAA2 BAGA|efge d2Bd:|
eaag edBd|eaag e2dB|eaag efge|dGGA BcdB|
eaag edBd|eaag e2dB|gaba gefd|efge dGBd||
